X:0338
T:Oak Stick.
M:6/8
L:1/8
Q:3/8=120
I: || || DC
P:ABA % Aird uses a da capo
Z:Jack Campin * www.campin.me.uk * 2009
K:D
P:A
a/g/|f2d ded|c2A ABA|efe e2f|g3 a2
g   |f2d ded|c2A ABA|Bcd edc|d3 d2||
P:B
a/g/|f2d ded|g2a b2g|f2d ded|g3 a3 |
     b2g gag|a2f fgf|efe e2f|g3 a2|]

